X: 43232
T: Within A Mile Of Dublin
R: reel
M: 4/4
K: Dmixolydian
dB|ADFE DEFG|Adfe d2dB|ADFE DEFG|ABcA GzFG|
ADFE DEFG|Adfe dzdB|ADFE DEFG|AdcA G2Gz|
AddB AGFG|ABdg fded|AddB AGFG|AdcA GzFG|
AddB AGFG|ABde fzfg|afge fdec|dBAF GzFG|
ADFD DEFG|Adfe D2DB|ADFE DEFG|ABcA GzFG|
ADFE DEFG|agfe d2dB|ADFE DEFG|AdcA G2Gz|
AddB AGFG|ABdg fded|AddB AGFG|AdcA GzFG|
AddB AGFG|ABde fzfg|afge fdec|dBAF GzFG|ADFE D3||

